!!!!SEGMENT: pl-cz--ii-188--011_orllowski-michall--missa-ex-g-sanctus.krn
!!!cenid: 17xx:1015
!!!COM: Orłowski, Michał
!!!COM-rismid: pe30020336
!!!CDT: ~1700-~1799
!!!CNT:
!!!OPR: Missa ex G
!!!OTL: Sanctus
!!!OMV: 011
!!!PDT:
!!!AGN: Sacred; Mass
!!!SMS-siglum: PL-CZ
!!!SMS-shelfmark: II-188
!!!SMS-shelfwork: 001-011 M
!!!SMS-variant:
!!!SMS-altvar:
!!!NIFC-rismid: 300000944
!!!URL-scan: http://repozytorium.nifc.pl/skany/pl-cz-nut--ii-188
!!!ONB-nifc: UWAGA: części Mszy: Kyrie, Gloria, Laudamus, Domine deus, Qui tollis, Quoniam,
!!!key: G
**kern	**dynam	**kern	**dynam	**kern	**dynam	**kern	**text	**kern	**text	**kern	**text	**kern	**kern
*part8	*part8	*part7	*part7	*part6	*part6	*part5	*part5	*part4	*part4	*part3	*part3	*part2	*part1
*staff8	*	*staff7	*	*staff6	*	*staff5	*staff5	*staff4	*staff4	*staff3	*staff3	*staff2	*staff1
*	*	*	*	*	*	*group1	*	*group1	*	*group1	*	*	*
*I"Fundamento.	*	*I"Violino Secundo.	*	*I"Violino Primo.	*	*I"Baſso.	*	*I"Canto 2do:	*	*I"Canto 1mo:	*	*I"Cornu 2do. in G.	*I"Cornu 1mo. in G.
*I'org	*	*I'vl 2	*	*I'vl 1	*	*I'B	*	*I'S 2	*	*I'S 1	*	*I'cor 2 in G	*I'cor 1 in G
*Iorgan	*	*Ivioln	*	*Ivioln	*	*Ibass	*	*Isoprn	*	*Isoprn	*	*Icor	*Icor
*ICklav	*	*ICstr	*	*ICstr	*	*ICvox	*	*ICvox	*	*ICvox	*	*ICbras	*ICbras
*clefF4	*	*clefG2	*	*clefG2	*	*clefF4	*	*clefC1	*	*clefC1	*	*clefG2	*clefG2
*	*	*	*	*	*	*	*	*	*	*	*	*ITrd3c5	*ITrd3c5
*k[f#]	*	*k[f#]	*	*k[f#]	*	*k[f#]	*	*k[f#]	*	*k[f#]	*	*k[f#]	*k[f#]
*G:	*	*G:	*	*G:	*	*G:	*	*G:	*	*G:	*	*G:	*G:
*M4/4	*	*M4/4	*	*M4/4	*	*M4/4	*	*M4/4	*	*M4/4	*	*M4/4	*M4/4
*met(c)	*	*met(c)	*	*met(c)	*	*met(c)	*	*met(c)	*	*met(c)	*	*met(c)	*met(c)
*all\right	*	*all\right	*	*all\right	*	*all\right	*	*all\right	*	*all\right	*	*all\right	*all\right
=1	=1	=1	=1	=1	=1	=1	=1	=1	=1	=1	=1	=1	=1
!LO:TX:a:B:t=Adagio.	!	!LO:TX:a:B:t=Adagio.	!	!LO:TX:a:B:t=Adagio.	!	!LO:TX:a:B:t=Adagio.	!	!LO:TX:a:B:t=Adagio	!	!LO:TX:a:B:t=Adagio.	!	!LO:TX:a:B:t=Adagio&colon;	!LO:TX:a:B:t=Adagio.
4G\	.	4b 4d/	.	4gg 4b 4d/	.	4G\	San-	4b\	San-	4gg\	San-	4g\	4b\
4G\	.	4b 4d/	.	4gg 4b 4d/	.	4G\	-ctus	4b\	-ctus	4gg\	-ctus	4g\	4b\
2r	.	2r	.	2r	.	2r	.	16r	.	16r	.	2r	2r
.	.	.	.	.	.	.	.	16g\LL	San-	16b\LL	San-	.	.
.	.	.	.	.	.	.	.	16a\	.	16cc\	.	.	.
.	.	.	.	.	.	.	.	16g\JJ	.	16b\JJ	.	.	.
.	.	.	.	.	.	.	.	16r	.	16r	.	.	.
.	.	.	.	.	.	.	.	16b\LL	.	16dd\LL	.	.	.
.	.	.	.	.	.	.	.	16a\	.	16cc\	.	.	.
.	.	.	.	.	.	.	.	16g\JJ	.	16b\JJ	.	.	.
=2	=2	=2	=2	=2	=2	=2	=2	=2	=2	=2	=2	=2	=2
*	*	*	*	*	*	*	*ij	*	*	*	*	*	*
4D/	.	4a 4d/	.	4ff# 4a 4d/	.	4D/	San-	4f#/	.	4a\	.	4d/	4a\
4D/	.	4a 4d/	.	4ff# 4a 4d/	.	4D/	-ctus	4a\	-ctus	4ff#\	-ctus	4d/	4a\
*	*	*	*	*	*	*	*Xij	*	*	*	*	*	*
2r	.	2r	.	2r	.	2r	.	16r	.	16r	.	2r	2r
.	.	.	.	.	.	.	.	16f#/LL	San-	16a\LL	San-	.	.
.	.	.	.	.	.	.	.	16g/	.	16b\	.	.	.
.	.	.	.	.	.	.	.	16f#/JJ	.	16a\JJ	.	.	.
.	.	.	.	.	.	.	.	16r	.	16r	.	.	.
.	.	.	.	.	.	.	.	16a\LL	.	16cc\LL	.	.	.
.	.	.	.	.	.	.	.	16g\	.	16b\	.	.	.
.	.	.	.	.	.	.	.	16f#\JJ	.	16a\JJ	.	.	.
=3	=3	=3	=3	=3	=3	=3	=3	=3	=3	=3	=3	=3	=3
4G\	.	4b/	.	4gg\	.	4G\	Do-	8g\	-ctus	8b\	-ctus	4g\	4b\
.	.	.	.	.	.	.	.	8g\	Do-	8cc\	Do-	.	.
8G\L	.	8b/L	.	8gg\L	.	8G\	-mi-	8b\	-mi-	8dd\	-mi-	8g\L	8b\L
8G\J	.	8b/J	.	8gg\J	.	8G\	-nus	8b\	-nus	8dd\	-nus	8g\J	8b\J
4G\	.	4b\	.	4gg\	.	4G\	De-	4b\	De-	4dd\	De-	4g\	4b\
4G\	.	4b\	.	4gg\	.	4G\	-us	4b\	-us	4dd\	-us	4g\	4b\
=4	=4	=4	=4	=4	=4	=4	=4	=4	=4	=4	=4	=4	=4
*	*	*	*	*	*	*2\right	*	*2\right	*	*2\right	*	*	*
4G\	.	4b/	.	4gg\	.	2.G\	Sa-	2.b\	Sa-	2.dd\	Sa-	4g\	4b\
4G\	.	4b/	.	4gg\	.	.	.	.	.	.	.	4g\	4b\
4G\	.	4b/	.	4gg\	.	.	.	.	.	.	.	4g\	4b\
4G\	.	4b/	.	4gg\	.	4G\	-ba-	4b\	-ba-	4dd\	-ba-	4g\	4b\
!	!	!	!	!LO:LB:g=original	!	!	!	!	!	!LO:LB:g=original	!	!	!
=5	=5	=5	=5	=5	=5	=5	=5	=5	=5	=5	=5	=5	=5
*2\right	*	*	*	*2\right	*	*	*	*	*	*	*	*	*2\right
2D;/	.	2a;</	.	2ff#;\	.	2D;\	-otch	2a;\	-otch	2ff#;\	-otch	2d;/	2a;\
*tremolo	*	*tremolo	*	*tremolo	*	*	*	*	*	*	*	*	*
8D\L	.	8a/L	.	8ff#\L	.	4D\	Ple-	4a\	Ple-	4ff#\	Ple-	4d/	4a\
8D\	.	8a/	.	8ff#\	.	.	.	.	.	.	.	.	.
8D\	.	8a/	.	8ff#\	.	8D\	-ni	8a\	-ni	8ff#\	-ni	8d/L	8a\L
8D\J	.	8a/J	.	8ff#\J	.	8D\	sunt	8a\	Sunt	8ff#\	sunt	8d/J	8a\J
=6	=6	=6	=6	=6	=6	=6	=6	=6	=6	=6	=6	=6	=6
8D\L	.	8a/L	.	8ff#\L	.	1D	Ce-	1a	Ce-	1ff#	Ce-	1d	1a
8D\	.	8a/	.	8ff#\	.	.	.	.	.	.	.	.	.
8D\	.	8a/	.	8ff#\	.	.	.	.	.	.	.	.	.
8D\J	.	8a/J	.	8ff#\J	.	.	.	.	.	.	.	.	.
8D\L	.	8a/L	.	8ff#\L	.	.	.	.	.	.	.	.	.
8D\	.	8a/	.	8ff#\	.	.	.	.	.	.	.	.	.
8D\	.	8a/	.	8ff#\	.	.	.	.	.	.	.	.	.
8D\J	.	8a/J	.	8ff#\J	.	.	.	.	.	.	.	.	.
!	!	!	!	!	!	!	!	!LO:LB:g=original	!	!	!	!	!
=7	=7	=7	=7	=7	=7	=7	=7	=7	=7	=7	=7	=7	=7
*	*	*2\right	*	*	*	*	*	*	*	*	*	*2\right	*
8GL	.	8b\L	.	8gg\L	.	2G\	-li	2b\	-li	2gg\	-li	2g\	2b\
8G	.	8b\	.	8gg\	.	.	.	.	.	.	.	.	.
8G	.	8b\	.	8gg\	.	.	.	.	.	.	.	.	.
8G	.	8b\J	.	8gg\J	.	.	.	.	.	.	.	.	.
8G	.	8b\L	.	8gg\L	.	2G\	et	2b\	et	2gg\	et	2g\	2b\
8G	.	8b\	.	8gg\	.	.	.	.	.	.	.	.	.
8G	.	8b\	.	8gg\	.	.	.	.	.	.	.	.	.
8GJ	.	8b\J	.	8gg\J	.	.	.	.	.	.	.	.	.
=8	=8	=8	=8	=8	=8	=8	=8	=8	=8	=8	=8	=8	=8
8G\L	.	8b\L	.	8gg\L	.	2G\	ter-	2b\	ter-	2gg\	ter-	2g\	2b\
8G\	.	8b\	.	8gg\	.	.	.	.	.	.	.	.	.
8G\	.	8b\	.	8gg\	.	.	.	.	.	.	.	.	.
8G\J	.	8b\J	.	8gg\J	.	.	.	.	.	.	.	.	.
8D\L	.	8a/L	.	8ff#\L	.	2D\	-ra	2a\	-ra	2ff#\	-ra	2d/	2a\
8D\	.	8a/	.	8ff#\	.	.	.	.	.	.	.	.	.
8D\	.	8a/	.	8ff#\	.	.	.	.	.	.	.	.	.
8D\J	.	8a/J	.	8ff#\J	.	.	.	.	.	.	.	.	.
!	!	!LO:PB:g=original	!	!	!	!	!	!	!	!	!	!LO:LB:g=original	!
=9	=9	=9	=9	=9	=9	=9	=9	=9	=9	=9	=9	=9	=9
8G\L	.	8b\L	.	8gg\L	.	2G\	glo-	2b\	glo-	2gg\	Glo-	2g\	2b\
8G\	.	8b\	.	8gg\	.	.	.	.	.	.	.	.	.
8G\	.	8b\	.	8gg\	.	.	.	.	.	.	.	.	.
8G\J	.	8b\J	.	8gg\J	.	.	.	.	.	.	.	.	.
8G\L	.	8b\L	.	8gg\L	.	4G\	-ri-	4b\	-ri-	4gg\	-ri-	4g\	4b\
8G\	.	8b\	.	8gg\	.	.	.	.	.	.	.	.	.
8G\	.	8b\	.	8gg\	.	4G\	-a	4b\	-a	4gg\	-a	4g\	4b\
8G\J	.	8b\J	.	8gg\J	.	.	.	.	.	.	.	.	.
!	!	!	!	!	!	!LO:LB:g=original	!	!	!	!	!	!	!LO:LB:g=original
=10	=10	=10	=10	=10	=10	=10	=10	=10	=10	=10	=10	=10	=10
8G\L	.	8b\L	.	8gg\L	.	1G	tu-	1b	tu-	1gg	tu-	1g	1b
8G\	.	8b\	.	8gg\	.	.	.	.	.	.	.	.	.
8G\	.	8b\	.	8gg\	.	.	.	.	.	.	.	.	.
8G\J	.	8b\J	.	8gg\J	.	.	.	.	.	.	.	.	.
8G\L	.	8b\L	.	8gg\L	.	.	.	.	.	.	.	.	.
8G\	.	8b\	.	8gg\	.	.	.	.	.	.	.	.	.
8G\	.	8b\	.	8gg\	.	.	.	.	.	.	.	.	.
8G\J	.	8b\J	.	8gg\J	.	.	.	.	.	.	.	.	.
=11	=11	=11	=11	=11	=11	=11	=11	=11	=11	=11	=11	=11	=11
8D/L	.	8a/L	.	8ff#\L	.	1D	.	1a	.	1ff#	.	1d	1a
8D/	.	8a/	.	8ff#\	.	.	.	.	.	.	.	.	.
8D/	.	8a/	.	8ff#\	.	.	.	.	.	.	.	.	.
8D/J	.	8a/J	.	8ff#\J	.	.	.	.	.	.	.	.	.
8D/L	.	8a/L	.	8ff#\L	.	.	.	.	.	.	.	.	.
8D/	.	8a/	.	8ff#\	.	.	.	.	.	.	.	.	.
8D/	.	8a/	.	8ff#\	.	.	.	.	.	.	.	.	.
8D/J	.	8a/J	.	8ff#\J	.	.	.	.	.	.	.	.	.
*Xtremolo	*	*Xtremolo	*	*Xtremolo	*	*	*	*	*	*	*	*	*
=12	=12	=12	=12	=12	=12	=12	=12	=12	=12	=12	=12	=12	=12
2G\	.	2b\	.	2gg\	.	2G\	-a	2b\	-a	2gg\	-a	2g\	2b\
2r	.	2r	.	2r	.	2r	.	2r	.	2r	.	2r	2r
!LO:LB:g=original	!	!	!	!LO:LB:g=original	!	!	!	!	!	!LO:LB:g=original	!	!LO:LB:g=original	!
=13||	=13||	=13||	=13||	=13||	=13||	=13||	=13||	=13||	=13||	=13||	=13||	=13||	=13||
*M3/8	*	*M3/8	*	*M3/8	*	*M3/8	*	*M3/8	*	*M3/8	*	*M3/8	*M3/8
!LO:TX:a:t=Oſanna	!	!LO:TX:a:t=Oſanna	!	!LO:TX:a:t=Oſanna	!	!	!	!	!	!LO:TX:a:i:t=Solo.	!	!LO:TX:a:t=Oſanna	!LO:TX:a:t=Oſanna
!LO:TX:a:B:t=Allo.	!	!LO:TX:a:B:t=Allo.	!	!LO:TX:a:B:t=Allo.	!	!LO:TX:a:B:t=Allo	!	!LO:TX:a:B:t=Allo	!	!LO:TX:a:B:t=Allo.	!	!LO:TX:a:B:t=Allo.	!LO:TX:a:B:t=Allo.
4GG/	.	1.r	.	1.r	.	1.r	.	1.r	.	8g\L	O-	1.r	1.r
.	.	.	.	.	.	.	.	.	.	8b\	.	.	.
8r	.	.	.	.	.	.	.	.	.	8cc\J	.	.	.
=14	=14	=14	=14	=14	=14	=14	=14	=14	=14	=14	=14	=14	=14
8GG/L	.	.	.	.	.	.	.	.	.	4dd\	-ſan-	.	.
8BB/	.	.	.	.	.	.	.	.	.	.	.	.	.
8GG/J	.	.	.	.	.	.	.	.	.	8b\	-na	.	.
=15	=15	=15	=15	=15	=15	=15	=15	=15	=15	=15	=15	=15	=15
4C/	.	.	.	.	.	.	.	.	.	8ee\L	in	.	.
.	.	.	.	.	.	.	.	.	.	8gg\	.	.	.
8r	.	.	.	.	.	.	.	.	.	8ee\J	ex-	.	.
=16	=16	=16	=16	=16	=16	=16	=16	=16	=16	=16	=16	=16	=16
!LO:TX:t=P:problem:mixed beam	!	!	!	!	!	!	!	!	!	!	!	!	!
8G\L	.	.	.	.	.	.	.	.	.	8eeT\	-cel-	.	.
8D/	.	.	.	.	.	.	.	.	.	8dd\	-sis	.	.
8GG/J	.	.	.	.	.	.	.	.	.	8r	.	.	.
=17	=17	=17	=17	=17	=17	=17	=17	=17	=17	=17	=17	=17	=17
4D/	.	1.r	.	1.r	.	1.r	.	1.r	.	8ee\L	in	1.r	1.r
.	.	.	.	.	.	.	.	.	.	8cc\J	.	.	.
8r	.	.	.	.	.	.	.	.	.	8a\	ex-	.	.
=18	=18	=18	=18	=18	=18	=18	=18	=18	=18	=18	=18	=18	=18
4G\	.	.	.	.	.	.	.	.	.	8dd\L	-Cel-	.	.
.	.	.	.	.	.	.	.	.	.	8b\J	.	.	.
8r	.	.	.	.	.	.	.	.	.	8g/	-sis	.	.
=19	=19	=19	=19	=19	=19	=19	=19	=19	=19	=19	=19	=19	=19
8D\L	.	.	.	.	.	.	.	.	.	4a\	De-	.	.
8F#\	.	.	.	.	.	.	.	.	.	.	.	.	.
8D\J	.	.	.	.	.	.	.	.	.	8b\	.	.	.
=20	=20	=20	=20	=20	=20	=20	=20	=20	=20	=20	=20	=20	=20
!LO:TX:t=P:problem:mixed beam	!	!	!	!	!	!	!	!	!	!	!	!	!
8G\L	.	.	.	.	.	.	.	.	.	4g/	-o	.	.
8D\	.	.	.	.	.	.	.	.	.	.	.	.	.
8GG/J	.	.	.	.	.	.	.	.	.	8r	.	.	.
=21	=21	=21	=21	=21	=21	=21	=21	=21	=21	=21	=21	=21	=21
4D/	.	1.r	.	1.r	.	1.r	.	1.r	.	8ee\	in	1.r	1.r
!	!	!	!	!	!	!	!	!	!	!LO:N:vis=4	!	!	!
.	.	.	.	.	.	.	.	.	.	8cc\	.	.	.
8r	.	.	.	.	.	.	.	.	.	8a\	ex-	.	.
!	!	!	!	!	!	!	!	!	!	!LO:LB:g=original	!	!	!
=22	=22	=22	=22	=22	=22	=22	=22	=22	=22	=22	=22	=22	=22
4G\	.	.	.	.	.	.	.	.	.	8dd\L	-Cel-	.	.
.	.	.	.	.	.	.	.	.	.	8b\J	.	.	.
8r	.	.	.	.	.	.	.	.	.	8g/	-ſis	.	.
=23	=23	=23	=23	=23	=23	=23	=23	=23	=23	=23	=23	=23	=23
8D\L	.	.	.	.	.	.	.	.	.	4a\	De-	.	.
8F#\	.	.	.	.	.	.	.	.	.	.	.	.	.
8D\J	.	.	.	.	.	.	.	.	.	8b\	.	.	.
=24	=24	=24	=24	=24	=24	=24	=24	=24	=24	=24	=24	=24	=24
8G\L	.	.	.	.	.	.	.	.	.	4g/	-o	.	.
8D\	.	.	.	.	.	.	.	.	.	.	.	.	.
8AA\J	.	.	.	.	.	.	.	.	.	8r	.	.	.
=25	=25	=25	=25	=25	=25	=25	=25	=25	=25	=25	=25	=25	=25
*	*	*^	*	*	*	*	*	*	*	*	*	*	*
!	!LO:DY:t=for.	!	!	!	!	!	!	!	!	!	!	!	!	!
4.D/	f	4.a/	4.f#\	.	8dd\L	.	4D/	In	4dd\	In	8dd\L	in	4.d/	4.a\
.	.	.	.	.	8ff#\	.	.	.	.	.	8ff#\J	.	.	.
.	.	.	.	.	8aa\J	.	8D/	ex-	8dd\	ex-	8aa\	ex-	.	.
!LO:LB:g=original	!	!	!	!	!	!	!	!	!	!	!	!	!	!
=26	=26	=26	=26	=26	=26	=26	=26	=26	=26	=26	=26	=26	=26	=26
4.AA/	.	4.a/	4.e\	.	8gg\L	.	4AA/	-Cel-	4cc#X\	-Cel-	8gg\L	-Cel-	4.a\	4.a\
.	.	.	.	.	8ee\	.	.	.	.	.	8ee\J	.	.	.
.	.	.	.	.	8cc#X\J	.	8AA/	-sis	8cc#\	-sis	8cc#X\	-ſis	.	.
=27	=27	=27	=27	=27	=27	=27	=27	=27	=27	=27	=27	=27	=27	=27
!	!	!	!	!	!	!	!LO:N:vis=4	!	!	!	!	!	!	!
4.AA/	.	4.a/	4.e\	.	16dd\LL	.	8D/	De-	8dd\	De-	8dd\	De-	4d/	4a\
.	.	.	.	.	16cc#X\	.	.	.	.	.	.	.	.	.
.	.	.	.	.	16b\	.	8D/	-o	8dd\	-o	8dd\	-o	.	.
.	.	.	.	.	16a\	.	.	.	.	.	.	.	.	.
.	.	.	.	.	16b\	.	8r	.	8r	.	8r	.	8r	8r
.	.	.	.	.	16cc#\JJ	.	.	.	.	.	.	.	.	.
=28	=28	=28	=28	=28	=28	=28	=28	=28	=28	=28	=28	=28	=28	=28
!	!	!	!	!	!	!	!	!	!LO:TX:a:t=1	!	!LO:TX:a:t=1.	!	!	!
8D/L	.	8a/L	8f#\L	.	8dd\L	.	4.r	.	4.r	.	4.r	.	4.r	4.r
8D/	.	8a/	8f#\	.	8ff#\	.	.	.	.	.	.	.	.	.
8D/J	.	8a/J	8f#\J	.	8dd\J	.	.	.	.	.	.	.	.	.
!	!	!	!	!	!	!	!	!	!LO:LB:g=original	!	!	!	!	!
=29	=29	=29	=29	=29	=29	=29	=29	=29	=29	=29	=29	=29	=29	=29
4.D/	.	4.a/	4.f#\	.	8dd\L	.	4D/	in	4dd\	In	8dd\L	in	4.d/	4.a\
.	.	.	.	.	8ff#\	.	.	.	.	.	8ff#\J	.	.	.
.	.	.	.	.	8aa\J	.	8D/	ex-	8dd\	ex-	8aa\	ex-	.	.
!	!	!LO:LB:g=original	!	!	!	!	!LO:LB:g=original	!	!	!	!	!	!	!
=30	=30	=30	=30	=30	=30	=30	=30	=30	=30	=30	=30	=30	=30	=30
4.AA/	.	4.a/	4.e\	.	8gg\L	.	4AA/	-Cel-	4cc#X\	-Cel-	8gg\L	-Cel-	4.a\	4.a\
.	.	.	.	.	8ee\	.	.	.	.	.	8ee\J	.	.	.
.	.	.	.	.	8cc#X\J	.	8AA/	-sis	8cc#\	-sis	8cc#X\	-sis	.	.
!	!	!	!	!	!	!	!	!	!	!	!LO:LB:g=original	!	!	!
=31	=31	=31	=31	=31	=31	=31	=31	=31	=31	=31	=31	=31	=31	=31
!	!	!	!	!	!	!	!LO:N:vis=4	!	!	!	!	!	!	!
4.AA/	.	4.a/	4.e\	.	16dd\LL	.	8D/	De-	8dd\	De-	8dd\	De-	4d/	4a\
.	.	.	.	.	16cc#X\	.	.	.	.	.	.	.	.	.
.	.	.	.	.	16b\	.	8D/	-o	8dd\	-o	8dd\	-o	.	.
.	.	.	.	.	16a\	.	.	.	.	.	.	.	.	.
.	.	.	.	.	16b\	.	8r	.	8r	.	8r	.	8r	8r
.	.	.	.	.	16cc#\JJ	.	.	.	.	.	.	.	.	.
!	!	!	!	!	!LO:LB:g=original	!	!	!	!	!	!	!	!	!
=32	=32	=32	=32	=32	=32	=32	=32	=32	=32	=32	=32	=32	=32	=32
!	!	!	!	!	!	!	!	!	!	!	!LO:TX:a:t=1.	!	!	!
8D\L	.	4a/	4f#\	.	4dd\	.	4.r	.	4.r	.	4.r	.	4.r	4.r
8F#\	.	.	.	.	.	.	.	.	.	.	.	.	.	.
8A\J	.	8r	8ryy	.	8r	.	.	.	.	.	.	.	.	.
=33	=33	=33	=33	=33	=33	=33	=33	=33	=33	=33	=33	=33	=33	=33
4.D/	.	4.a/	4.f#\	.	8dd\L	.	4D/	in	4dd\	In	8dd\L	in	4.d/	4.a\
.	.	.	.	.	8ff#\	.	.	.	.	.	8ff#\J	.	.	.
.	.	.	.	.	8aa\J	.	8D/	ex-	8dd\	ex-	8aa\	ex-	.	.
=34	=34	=34	=34	=34	=34	=34	=34	=34	=34	=34	=34	=34	=34	=34
4.AA/	.	4.a/	4.e\	.	8gg\L	.	4AA/	-Cel-	4cc#X\	-Cel-	8gg\L	-Cel-	4.a\	4.a\
.	.	.	.	.	8ee\	.	.	.	.	.	8ee\J	.	.	.
.	.	.	.	.	8cc#X\J	.	8AA/	-sis	8cc#\	-sis	8cc#X\	-ſis	.	.
!	!	!	!	!	!	!	!	!	!	!	!	!	!	!LO:LB:g=original
=35	=35	=35	=35	=35	=35	=35	=35	=35	=35	=35	=35	=35	=35	=35
!LO:N:vis=4	!	!	!	!	!	!	!	!	!	!	!	!	!	!
4.AA/	.	4.a/	4.e\	.	16dd\LL	.	4D/	De-	8dd\	De-	8dd\	De-	4d/	4a\
.	.	.	.	.	16cc#X\	.	.	.	.	.	.	.	.	.
.	.	.	.	.	16b\	.	.	.	8dd\	-o	8dd\	-o	.	.
.	.	.	.	.	16a\	.	.	.	.	.	.	.	.	.
.	.	.	.	.	16b\	.	8D/	-o	8r	.	8r	.	8r	8r
.	.	.	.	.	16cc#\JJ	.	.	.	.	.	.	.	.	.
=36	=36	=36	=36	=36	=36	=36	=36	=36	=36	=36	=36	=36	=36	=36
!	!	!	!	!	!	!	!	!	!	!	!LO:TX:a:t=1.	!	!	!
8D/L	.	8a/L	8f#\L	.	8dd\L	.	4.r	.	4.r	.	4.r	.	4.r	4.r
8D/	.	8a/	8f#\	.	8ff#\	.	.	.	.	.	.	.	.	.
8D/J	.	8a/J	8f#\J	.	8dd\J	.	.	.	.	.	.	.	.	.
!	!	!	!	!	!	!	!	!	!	!	!	!	!LO:LB:g=original	!
=37	=37	=37	=37	=37	=37	=37	=37	=37	=37	=37	=37	=37	=37	=37
4.D/	.	4.a/	4.f#\	.	8dd\L	.	4D/	In	4dd\	In	8dd\L	in	4.d/	4.a\
.	.	.	.	.	8ff#\	.	.	.	.	.	8ff#\J	.	.	.
.	.	.	.	.	8aa\J	.	8D/	ex-	8dd\	ex-	8aa\	ex-	.	.
=38	=38	=38	=38	=38	=38	=38	=38	=38	=38	=38	=38	=38	=38	=38
4.AA/	.	4.a/	4.e\	.	8gg\L	.	4AA/	-Cel-	4cc#X\	-Cel-	8gg\L	-Cel-	4.a\	4.a\
.	.	.	.	.	8ee\	.	.	.	.	.	8ee\J	.	.	.
.	.	.	.	.	8cc#X\J	.	8AA/	-sis	8cc#\	-sis	8cc#X\	-sis	.	.
=39	=39	=39	=39	=39	=39	=39	=39	=39	=39	=39	=39	=39	=39	=39
!	!	!	!	!	!	!	!LO:N:vis=4	!	!	!	!	!	!	!
4.AA/	.	4.a/	4.e\	.	16dd\LL	.	8D/	De-	8dd\	De-	8dd\	De-	4d/	4a\
.	.	.	.	.	16cc#X\	.	.	.	.	.	.	.	.	.
.	.	.	.	.	16b\	.	8D/	-o	8dd\	-o	8dd\	-o	.	.
.	.	.	.	.	16a\	.	.	.	.	.	.	.	.	.
.	.	.	.	.	16b\	.	8r	.	8r	.	8r	.	8r	8r
.	.	.	.	.	16cc#\JJ	.	.	.	.	.	.	.	.	.
!	!	!	!	!	!	!	!	!	!	!	!LO:LB:g=original	!	!	!
=40	=40	=40	=40	=40	=40	=40	=40	=40	=40	=40	=40	=40	=40	=40
!	!	!	!	!	!	!	!	!	!	!	!LO:TX:a:t=13.	!	!	!
4D/	.	4a/	4f#\	.	4dd\	.	1.r	.	4.r	.	1.r	.	1.r	1.r
8r	.	8r	8ryy	.	8r	.	.	.	.	.	.	.	.	.
*	*	*v	*v	*	*	*	*	*	*	*	*	*	*	*
=41	=41	=41	=41	=41	=41	=41	=41	=41	=41	=41	=41	=41	=41
!LO:TX:a:t=12.	!	!	!LO:DY:a:t=pia	!	!LO:DY:a:t=pia	!	!	!LO:TX:a:i:t=Solo	!	!	!	!	!
1.r	.	4G/	p	4G/	p	.	.	8g\L	O-	.	.	.	.
.	.	.	.	.	.	.	.	8b\	.	.	.	.	.
.	.	8r	.	8r	.	.	.	8cc#X\J	.	.	.	.	.
=42	=42	=42	=42	=42	=42	=42	=42	=42	=42	=42	=42	=42	=42
.	.	8G/L	.	8G/L	.	.	.	4dd\	-ſan-	.	.	.	.
.	.	8B/	.	8B/	.	.	.	.	.	.	.	.	.
.	.	8G/J	.	8G/J	.	.	.	8b\	-na	.	.	.	.
!	!	!	!	!LO:LB:g=original	!	!	!	!	!	!	!	!	!
=43	=43	=43	=43	=43	=43	=43	=43	=43	=43	=43	=43	=43	=43
.	.	4c/	.	4c/	.	.	.	8ee\L	in	.	.	.	.
.	.	.	.	.	.	.	.	8gg\	.	.	.	.	.
.	.	8r	.	8r	.	.	.	8ee\J	ex-	.	.	.	.
=44	=44	=44	=44	=44	=44	=44	=44	=44	=44	=44	=44	=44	=44
.	.	8g/L	.	8g/L	.	1.r	.	8eeT\	-cel-	1.r	.	1.r	1.r
.	.	8d/	.	8d/	.	.	.	8dd\	-sis	.	.	.	.
.	.	8G/J	.	8G/J	.	.	.	8r	.	.	.	.	.
!	!	!	!	!	!	!	!	!LO:LB:g=original	!	!	!	!	!
=45	=45	=45	=45	=45	=45	=45	=45	=45	=45	=45	=45	=45	=45
1.r	.	4d/	.	4d/	.	.	.	8ee\L	in	.	.	.	.
.	.	.	.	.	.	.	.	8cc\J	.	.	.	.	.
.	.	8r	.	8r	.	.	.	8a\	ex-	.	.	.	.
=46	=46	=46	=46	=46	=46	=46	=46	=46	=46	=46	=46	=46	=46
.	.	4g/	.	4g/	.	.	.	8dd\L	-Cel-	.	.	.	.
.	.	.	.	.	.	.	.	8b\J	.	.	.	.	.
.	.	8r	.	8r	.	.	.	8g/	-sis	.	.	.	.
!	!	!LO:LB:g=original	!	!	!	!	!	!	!	!	!	!	!
=47	=47	=47	=47	=47	=47	=47	=47	=47	=47	=47	=47	=47	=47
.	.	8d/L	.	8d/L	.	.	.	4a\	De-	.	.	.	.
.	.	8f#/	.	8f#/	.	.	.	.	.	.	.	.	.
.	.	8d/J	.	8d/J	.	.	.	8b\	.	.	.	.	.
=48	=48	=48	=48	=48	=48	=48	=48	=48	=48	=48	=48	=48	=48
.	.	8g/L	.	8g/L	.	1.r	.	4g/	-o	1.r	.	1.r	1.r
.	.	8d/	.	8d/	.	.	.	.	.	.	.	.	.
.	.	8G/J	.	8G/J	.	.	.	8r	.	.	.	.	.
=49	=49	=49	=49	=49	=49	=49	=49	=49	=49	=49	=49	=49	=49
!	!	!	!	!	!	!	!	!LO:TX:t=P:problem:takty nr 49-53 oznaczone znakiem repetycji	!	!	!	!	!
1.r	.	4d/	.	4d/	.	.	.	8ee\Lyy	in	.	.	.	.
.	.	.	.	.	.	.	.	8cc\Jyy	.	.	.	.	.
.	.	8r	.	8r	.	.	.	8a\yy	ex-	.	.	.	.
=50	=50	=50	=50	=50	=50	=50	=50	=50	=50	=50	=50	=50	=50
.	.	4g/	.	4g/	.	.	.	8dd\Lyy	-Cel-	.	.	.	.
.	.	.	.	.	.	.	.	8b\Jyy	.	.	.	.	.
.	.	8r	.	8r	.	.	.	8g/yy	-sis	.	.	.	.
=51	=51	=51	=51	=51	=51	=51	=51	=51	=51	=51	=51	=51	=51
.	.	8d/L	.	8d/L	.	.	.	4a\yy	De-	.	.	.	.
.	.	8f#/	.	8f#/	.	.	.	.	.	.	.	.	.
.	.	8d/J	.	8d/J	.	.	.	8b\yy	.	.	.	.	.
=52	=52	=52	=52	=52	=52	=52	=52	=52	=52	=52	=52	=52	=52
.	.	8g/L	.	8g/L	.	4.r	.	4g/yy	-o	4.r	.	4.r	4.r
.	.	8d/	.	8d/	.	.	.	.	.	.	.	.	.
.	.	8G/J	.	8G/J	.	.	.	8ryy	.	.	.	.	.
=53	=53	=53	=53	=53	=53	=53	=53	=53	=53	=53	=53	=53	=53
*	*	*	*	*^	*	*	*	*	*	*	*	*	*
*	*	*tremolo	*	*tremolo	*	*	*	*	*	*	*	*	*	*
!	!	!	!LO:DY:t=for.	!	!	!	!	!	!	!	!	!	!	!
8G\L	.	16b 16d/LL	f	16gg/LL	16b\LL	.	8G\L	O-	4.b\	O-	4.gg\	O-	4.g\	4.b\
.	.	16b 16d/	.	16gg/	16b\	.	.	.	.	.	.	.	.	.
8B\	.	16b 16d/	.	16gg/	16b\	.	8B\	.	.	.	.	.	.	.
.	.	16b 16d/	.	16gg/	16b\	.	.	.	.	.	.	.	.	.
8G\J	.	16b 16d/	.	16gg/	16b\	.	8G\J	.	.	.	.	.	.	.
.	.	16b 16d/JJ	.	16gg/JJ	16b\JJ	.	.	.	.	.	.	.	.	.
!LO:LB:g=original	!	!	!	!	!	!	!LO:LB:g=original	!	!	!	!	!	!	!
=54	=54	=54	=54	=54	=54	=54	=54	=54	=54	=54	=54	=54	=54	=54
8D\L	.	16a 16d/LL	.	16ff#/LL	16a\LL	.	8D\L	-ſan-	4a\	-ſan-	4ff#\	-ſan-	4.d/	4.a\
.	.	16a 16d/	.	16ff#/	16a\	.	.	.	.	.	.	.	.	.
8F#\	.	16a 16d/	.	16ff#/	16a\	.	8F#\	.	.	.	.	.	.	.
.	.	16a 16d/	.	16ff#/	16a\	.	.	.	.	.	.	.	.	.
8D\J	.	16a 16d/	.	16ff#/	16a\	.	8D\J	-na	8a\	-na	8ff#\	-na	.	.
.	.	16a 16d/JJ	.	16ff#/JJ	16a\JJ	.	.	.	.	.	.	.	.	.
=55	=55	=55	=55	=55	=55	=55	=55	=55	=55	=55	=55	=55	=55	=55
8G\L	.	16b 16d/LL	.	16gg/LL	16b\LL	.	8G\L	In	4b\	In	4gg\	In	4.g\	4.b\
.	.	16b 16d/	.	16gg/	16b\	.	.	.	.	.	.	.	.	.
8B\	.	16b 16d/	.	16gg/	16b\	.	8B\	.	.	.	.	.	.	.
.	.	16b 16d/	.	16gg/	16b\	.	.	.	.	.	.	.	.	.
8G\J	.	16b 16d/	.	16gg/	16b\	.	8G\J	ex-	8b\	ex-	8gg\	ex-	.	.
.	.	16b 16d/JJ	.	16gg/JJ	16b\JJ	.	.	.	.	.	.	.	.	.
=56	=56	=56	=56	=56	=56	=56	=56	=56	=56	=56	=56	=56	=56	=56
8D\L	.	16a 16d/LL	.	16ff#/LL	16a\LL	.	8D\L	-Cel-	4a\	-Cel-	4ff#\	-Cel-	4.d/	4.a\
.	.	16a 16d/	.	16ff#/	16a\	.	.	.	.	.	.	.	.	.
8F#\	.	16a 16d/	.	16ff#/	16a\	.	8F#\	.	.	.	.	.	.	.
.	.	16a 16d/	.	16ff#/	16a\	.	.	.	.	.	.	.	.	.
8D\J	.	16a 16d/	.	16ff#/	16a\	.	8D\J	-sis	8a\	-sis	8ff#\	-sis	.	.
.	.	16a 16d/JJ	.	16ff#/JJ	16a\JJ	.	.	.	.	.	.	.	.	.
=57	=57	=57	=57	=57	=57	=57	=57	=57	=57	=57	=57	=57	=57	=57
8G\L	.	16b 16d/LL	.	16gg/LL	16b\LL	.	8G\L	in	4b\	in	4gg\	in	4.g\	4.b\
.	.	16b 16d/	.	16gg/	16b\	.	.	.	.	.	.	.	.	.
8B\	.	16b 16d/	.	16gg/	16b\	.	8B\	.	.	.	.	.	.	.
.	.	16b 16d/	.	16gg/	16b\	.	.	.	.	.	.	.	.	.
8G\J	.	16b 16d/	.	16gg/	16b\	.	8G\J	ex-	8b\	ex-	8gg\	ex-	.	.
.	.	16b 16d/JJ	.	16gg/JJ	16b\JJ	.	.	.	.	.	.	.	.	.
=58	=58	=58	=58	=58	=58	=58	=58	=58	=58	=58	=58	=58	=58	=58
8D\L	.	16a 16d/LL	.	16ff#/LL	16a\LL	.	8D\L	-Cel-	4a\	-Cel-	4ff#\	-Cel-	4.d/	4.a\
.	.	16a 16d/	.	16ff#/	16a\	.	.	.	.	.	.	.	.	.
8F#\	.	16a 16d/	.	16ff#/	16a\	.	8F#\	.	.	.	.	.	.	.
.	.	16a 16d/	.	16ff#/	16a\	.	.	.	.	.	.	.	.	.
8D\J	.	16a 16d/	.	16ff#/	16a\	.	8D\J	-sis	8a\	-sis	8ff#\	-sis	.	.
.	.	16a 16d/JJ	.	16ff#/JJ	16a\JJ	.	.	.	.	.	.	.	.	.
=59	=59	=59	=59	=59	=59	=59	=59	=59	=59	=59	=59	=59	=59	=59
8G\L	.	16b 16d/LL	.	16gg/LL	16b\LL	.	8G\L	in	4b\	in	4gg\	in	4.g\	4.b\
.	.	16b 16d/	.	16gg/	16b\	.	.	.	.	.	.	.	.	.
8B\	.	16b 16d/	.	16gg/	16b\	.	8B\	.	.	.	.	.	.	.
.	.	16b 16d/	.	16gg/	16b\	.	.	.	.	.	.	.	.	.
8G\J	.	16b 16d/	.	16gg/	16b\	.	8G\J	ex-	8b\	ex-	8gg\	ex-	.	.
.	.	16b 16d/JJ	.	16gg/JJ	16b\JJ	.	.	.	.	.	.	.	.	.
=60	=60	=60	=60	=60	=60	=60	=60	=60	=60	=60	=60	=60	=60	=60
8D\L	.	16a 16d/LL	.	16ff#/LL	16a\LL	.	8D\L	-Cel-	4a\	-Cel-	4ff#\	-Cel-	4.d/	4.a\
.	.	16a 16d/	.	16ff#/	16a\	.	.	.	.	.	.	.	.	.
8F#\	.	16a 16d/	.	16ff#/	16a\	.	8F#\	.	.	.	.	.	.	.
.	.	16a 16d/	.	16ff#/	16a\	.	.	.	.	.	.	.	.	.
8D\J	.	16a 16d/	.	16ff#/	16a\	.	8D\J	-sis	8a\	-sis	8ff#\	-sis	.	.
.	.	16a 16d/JJ	.	16ff#/JJ	16a\JJ	.	.	.	.	.	.	.	.	.
*	*	*Xtremolo	*	*	*Xtremolo	*	*	*	*	*	*	*	*	*
*	*	*	*	*v	*v	*	*	*	*	*	*	*	*	*
=61	=61	=61	=61	=61	=61	=61	=61	=61	=61	=61	=61	=61	=61
8G\L	.	8bL 8d/	.	8ggL 8b 8d/	.	4.G\	De-	4.b\	De-	4.gg\	De-	8g\L	8b\L
8G\	.	8b 8d/	.	8gg 8b 8d/	.	.	.	.	.	.	.	8g\	8b\
8G\J	.	8bJ 8d/	.	8ggJ 8b 8d/	.	.	.	.	.	.	.	8g\J	8b\J
=62	=62	=62	=62	=62	=62	=62	=62	=62	=62	=62	=62	=62	=62
4G\	.	4b 4d/	.	4gg 4b 4d/	.	4G\	-o	4b\	-o	4gg\	-o	4g\	4b\
8r	.	8r	.	8r	.	8r	.	8r	.	8r	.	8r	8r
==	==	==	==	==	==	==	==	==	==	==	==	==	==
*-	*-	*-	*-	*-	*-	*-	*-	*-	*-	*-	*-	*-	*-
!!!system-decoration: [(s1,s2)][(g1)][(s6,s7)][(s8)]
!!!RDF**kern: < = below
!!!ENC: Marcin Jachim
!!!END: 2020-08-20
!!!ENC: Andrzej Kubiczek
!!!END: 2021-11-06
